Obsidian/apps/16s/firefox-symbolic.svg

<svg height="16" viewBox="0 0 16 16" width="16" xmlns="http://www.w3.org/2000/svg"><path d="m15.054715 6.9884649c-.02034-.133652-.04071-.2122775-.04071-.2122775s-.05225.060583-.138743.1748124a4.9808937 4.9808937 0 0 0 -.171568-.9406769 6.4034781 6.4034781 0 0 0 -.433342-1.1150349 4.6469845 4.6469845 0 0 0 -.395882-.6789194q-.081407-.121631-.166033-.2358641c-.263609-.4305669-.566072-.6937178-.916168-1.1913446a3.6101075 3.6101075 0 0 1 -.458316-1.2417545 5.0151173 5.0151173 0 0 0 -.220139.8125744c-.359346-.3625828-.671982-.6201835-.860672-.7959259-.930971-.86945905-.822746-1.32037574-.822746-1.32037574s-1.7389294 1.94102274-.9855522 3.96297904a3.8848199 3.8848199 0 0 0 1.2949452 1.726432c.728868.6012222 1.513693 1.0743371 1.927612 2.2832561a3.8741829 3.8741829 0 0 0 -1.454031-1.5340419 3.5023502 3.5023502 0 0 1 .277484 1.3874367 3.2946971 3.2946971 0 0 1 -4.0286558 3.2095999 3.0343219 3.0343219 0 0 1 -.8162738-.277488 3.3219834 3.3219834 0 0 1 -.9781424-.904142l-.00463-.0078.058274.02125a3.0061106 3.0061106 0 0 0 .4162344.111409 2.6028293 2.6028293 0 0 0 1.6570605-.195631c.5207523-.2890162.8361622-.5031448 1.091913-.4185114h.0046c.24974.079514.446755-.1628244.2682391-.4162632a1.3596868 1.3596868 0 0 0 -1.3171166-.5142649c-.5212138.0758431-.9989537.4462922-1.6820342.0874112a1.4470953 1.4470953 0 0 1 -.128107-.075371c-.04625-.026369.146605.040234.1017455.010233a3.3899676 3.3899676 0 0 1 -.4291799-.256214c-.010172-.00822.103133.032367.092497.024039a1.6561356 1.6561356 0 0 1 -.447681-.4528287.80517516.80517516 0 0 1 -.030524-.7186914.63405807.63405807 0 0 1 .2774875-.2608382c.088333.043485.1429059.076305.1429059.076305s-.040235-.073997-.061972-.1128365c.00786-.0027.014794 0 .022662-.00513.077233.033293.248351.1202544.3385341.1734358a.46987818.46987818 0 0 1 .1549297.138751s.030994-.015351.0079-.079998a.41623066.41623066 0 0 0 -.1600447-.196073h.0074a1.3596868 1.3596868 0 0 1 .1970213.1225561.96149289.96149289 0 0 0 .078625-.416232.54479973.54479973 0 0 0 -.031914-.2312396c-.024511-.046254.013876-.064746.056885-.016135a.45137905.45137905 0 0 0 -.036547-.1100632v-.00372s.024511-.031916.035615-.043486a.66134433.66134433 0 0 1 .0998875-.0814052 4.6122987 4.6122987 0 0 1 .6775312-.3454707c.1914636-.0837426.350094-.1475494.3824682-.1660632a1.0637007 1.0637007 0 0 0 .1355052-.1040612.91015778.91015778 0 0 0 .3052354-.5272274.73996569.73996569 0 0 0 .0079-.082324v-.023118-.013967-.00552-.00611c-.0277796-.1040313-.2072201-.1821812-1.145127-.2700585a.81997449.81997449 0 0 1 -.6706012-.6288224v.0042c-.013416.034225-.025431.068909-.037456.1040572.012025-.034685.024051-.069373.037456-.1040572v-.00742a2.3762148 2.3762148 0 0 1 .9184824-1.1404693c.024051-.019416-.096192.00512-.072152-.014798a2.3845397 2.3845397 0 0 1 .2451136-.1035967c.0420882-.017569-.1803668-.102671-.3769197-.081864a1.0174527 1.0174527 0 0 0 -.3496338.082324c.046253-.039773.1849968-.092498.1521605-.092498a2.2499581 2.2499581 0 0 0 -.713142.2696255.14521828.14521828 0 0 1 .01387-.064747 1.1099484 1.1099484 0 0 0 -.4458297.3440843.58966016.58966016 0 0 0 .00462-.080469 1.3300881 1.3300881 0 0 0 -.2187525.2053404l-.00417.00321a2.9066776 2.9066776 0 0 0 -1.6265194-.1387344l-.00463-.0042h.00554a1.3610743 1.3610743 0 0 1 -.2890342-.3236973l-.0074.0018-.00877-.010174c-.0356237-.0527097-.0721588-.1123699-.10962-.178968-.0268229-.0462448-.0541112-.1003579-.0813975-.1563176 0-.00372-.00416-.00513-.006-.00552-.0111 0-.01896.05133-.028212.037927v-.0028a1.9923577 1.9923577 0 0 1 -.1308892-.7801737l-.0074.00372a.87130958.87130958 0 0 0 -.3302067.4319445c-.028212.063362-.046248.098047-.064746.1327329 0 .0028 0-.00461 0-.016194.00416-.031916.018037-.097585.014799-.092497-.00323.00513-.00553.00882-.00877.013415a.80147532.80147532 0 0 0 -.1160921.1720405 1.0891367 1.0891367 0 0 0 -.0693718.1766665c-.00276.00973 0-.00832 0-.029599 0-.02127.00416-.059199 0-.051331l-.010172.019887a4.3935464 4.3935464 0 0 0 -.3699873 1.4036196 1.3976101 1.3976101 0 0 0 -.0143365.2488144v.00742a3.0653076 3.0653076 0 0 0 -.3778493.5087239 7.2174403 7.2174403 0 0 0 -.79869953 1.9562841 4.7871157 4.7871157 0 0 1 .42779123-.7496777 6.9371784 6.9371784 0 0 0 -.48328879 2.5436308 6.582457 6.582457 0 0 1 .20811519-.7533759 6.3854411 6.3854411 0 0 0 .5771722 2.9894588 6.9542899 6.9542899 0 0 0 2.7522102 3.120807 6.0196208 6.0196208 0 0 0 1.6038754.768639c.07492.02728.1507676.0541.2284646.08-.024511-.0096-.04625-.02034-.070761-.03098a7.2609132 7.2609132 0 0 0 2.0811448.306161c2.494615 0 3.318287-.949928 3.394136-1.044738a1.2625664 1.2625664 0 0 0 .294598-.395876q.07216-.02958.145679-.06335l.03097-.01397.05597-.02635a5.2315572 5.2315572 0 0 0 1.053064-.659489 2.5436321 2.5436321 0 0 0 .98184-1.433687.89628343.89628343 0 0 0 .01343-.660421q.03838-.0606.0791-.129501a5.8762526 5.8762526 0 0 0 .881947-2.8585787v-.0027c0-.027291 0-.054583 0-.081863a3.5754215 3.5754215 0 0 0 -.05597-.6409876z" fill="#bebebe" stroke-width=".462479"/></svg>

<?xml version="1.0" encoding="UTF-8" standalone="no"?>
<svg
   xmlns:dc="http://purl.org/dc/elements/1.1/"
   xmlns:cc="http://creativecommons.org/ns#"
   xmlns:rdf="http://www.w3.org/1999/02/22-rdf-syntax-ns#"
   xmlns:svg="http://www.w3.org/2000/svg"
   xmlns="http://www.w3.org/2000/svg"
   xmlns:sodipodi="http://sodipodi.sourceforge.net/DTD/sodipodi-0.dtd"
   xmlns:inkscape="http://www.inkscape.org/namespaces/inkscape"
   width="16"
   height="16"
   viewBox="0 0 16 16"
   version="1.1"
   id="svg3758"
   sodipodi:docname="firefox-symbolic-quantum.svg"
   inkscape:version="0.92.2 5c3e80d, 2017-08-06">
  <metadata
     id="metadata3764">
    <rdf:RDF>
      <cc:Work
         rdf:about="">
        <dc:format>image/svg+xml</dc:format>
        <dc:type
           rdf:resource="http://purl.org/dc/dcmitype/StillImage" />
        <dc:title>Gnome Symbolic Icon Theme</dc:title>
      </cc:Work>
    </rdf:RDF>
  </metadata>
  <defs
     id="defs3762" />
  <sodipodi:namedview
     pagecolor="#555753"
     bordercolor="#666666"
     borderopacity="1"
     objecttolerance="10"
     gridtolerance="10"
     guidetolerance="10"
     inkscape:pageopacity="1"
     inkscape:pageshadow="2"
     inkscape:window-width="1591"
     inkscape:window-height="909"
     id="namedview3760"
     showgrid="false"
     showborder="false"
     inkscape:snap-global="false"
     inkscape:zoom="1"
     inkscape:cx="3.8851213"
     inkscape:cy="12.517918"
     inkscape:window-x="143"
     inkscape:window-y="60"
     inkscape:window-maximized="0"
     inkscape:current-layer="svg3758">
    <inkscape:grid
       type="xygrid"
       id="grid3768" />
  </sodipodi:namedview>
  <title
     id="title3754">Gnome Symbolic Icon Theme</title>
  <path
     d="m 15.054715,6.9884649 v 0 c -0.02034,-0.133652 -0.04071,-0.2122775 -0.04071,-0.2122775 0,0 -0.05225,0.060583 -0.138743,0.1748124 A 4.9808937,4.9808937 0 0 0 14.703694,6.0103229 6.4034781,6.4034781 0 0 0 14.270352,4.895288 4.6469845,4.6469845 0 0 0 13.87447,4.2163686 Q 13.793063,4.0947376 13.708437,3.9805045 C 13.444828,3.5499376 13.142365,3.2867867 12.792269,2.7891599 A 3.6101075,3.6101075 0 0 1 12.333953,1.5474054 5.0151173,5.0151173 0 0 0 12.113814,2.3599798 C 11.754468,1.997397 11.441832,1.7397963 11.253142,1.5640539 10.322171,0.69459485 10.430396,0.24367816 10.430396,0.24367816 v 0 c 0,0 -1.7389294,1.94102274 -0.9855522,3.96297904 a 3.8848199,3.8848199 0 0 0 1.2949452,1.726432 c 0.728868,0.6012222 1.513693,1.0743371 1.927612,2.2832561 A 3.8741829,3.8741829 0 0 0 11.21337,6.6823034 3.5023502,3.5023502 0 0 1 11.490854,8.0697401 3.2946971,3.2946971 0 0 1 7.4621982,11.27934 3.0343219,3.0343219 0 0 1 6.6459244,11.001852 3.3219834,3.3219834 0 0 1 5.667782,10.09771 l -0.00463,-0.0078 0.058274,0.02125 a 3.0061106,3.0061106 0 0 0 0.4162344,0.111409 2.6028293,2.6028293 0 0 0 1.6570605,-0.195631 C 8.3154732,9.7379218 8.6308831,9.5237932 8.8866339,9.6084266 h 0.0046 c 0.24974,0.079514 0.446755,-0.1628244 0.2682391,-0.4162632 A 1.3596868,1.3596868 0 0 0 7.8423564,8.6778985 C 7.3211426,8.7537416 6.8434027,9.1241907 6.1603222,8.7653097 a 1.4470953,1.4470953 0 0 1 -0.128107,-0.075371 c -0.04625,-0.026369 0.146605,0.040234 0.1017455,0.010233 A 3.3899676,3.3899676 0 0 1 5.7047808,8.4439577 c -0.010172,-0.00822 0.103133,0.032367 0.092497,0.024039 A 1.6561356,1.6561356 0 0 1 5.3495968,8.015168 0.80517516,0.80517516 0 0 1 5.3190728,7.2964766 0.63405807,0.63405807 0 0 1 5.5965603,7.0356384 c 0.088333,0.043485 0.1429059,0.076305 0.1429059,0.076305 0,0 -0.040235,-0.073997 -0.061972,-0.1128365 0.00786,-0.0027 0.014794,0 0.022662,-0.00513 0.077233,0.033293 0.248351,0.1202544 0.3385341,0.1734358 A 0.46987818,0.46987818 0 0 1 6.19362,7.3061637 c 0,0 0.030994,-0.015351 0.0079,-0.079998 A 0.41623066,0.41623066 0 0 0 6.0414753,7.0300927 h 0.0074 a 1.3596868,1.3596868 0 0 1 0.1970213,0.1225561 0.96149289,0.96149289 0 0 0 0.078625,-0.416232 0.54479973,0.54479973 0 0 0 -0.031914,-0.2312396 c -0.024511,-0.046254 0.013876,-0.064746 0.056885,-0.016135 A 0.45137905,0.45137905 0 0 0 6.3129456,6.378979 v -0.00372 0 c 0,0 0.024511,-0.031916 0.035615,-0.043486 A 0.66134433,0.66134433 0 0 1 6.4484481,6.2503678 4.6122987,4.6122987 0 0 1 7.1259793,5.9048971 C 7.3174429,5.8211545 7.4760733,5.7573477 7.5084475,5.7388339 a 1.0637007,1.0637007 0 0 0 0.1355052,-0.1040612 0.91015778,0.91015778 0 0 0 0.3052354,-0.5272274 0.73996569,0.73996569 0 0 0 0.0079,-0.082324 v -0.023118 -0.013967 0 -0.00552 0 -0.00611 0 C 7.9293085,4.872475 7.749868,4.7943251 6.8119611,4.7064478 A 0.81997449,0.81997449 0 0 1 6.1413599,4.0776254 v 0.0042 c -0.013416,0.034225 -0.025431,0.068909 -0.037456,0.1040572 0.012025,-0.034685 0.024051,-0.069373 0.037456,-0.1040572 v -0.00742 A 2.3762148,2.3762148 0 0 1 7.0598423,2.9339361 c 0.024051,-0.019416 -0.096192,0.00512 -0.072152,-0.014798 A 2.3845397,2.3845397 0 0 1 7.2328039,2.8155414 C 7.2748921,2.7979724 7.0524371,2.7128704 6.8558842,2.7336774 a 1.0174527,1.0174527 0 0 0 -0.3496338,0.082324 c 0.046253,-0.039773 0.1849968,-0.092498 0.1521605,-0.092498 a 2.2499581,2.2499581 0 0 0 -0.713142,0.2696255 0.14521828,0.14521828 0 0 1 0.01387,-0.064747 1.1099484,1.1099484 0 0 0 -0.4458297,0.3440843 0.58966016,0.58966016 0 0 0 0.00462,-0.080469 1.3300881,1.3300881 0 0 0 -0.2187525,0.2053404 l -0.00417,0.00321 A 2.9066776,2.9066776 0 0 0 3.6684873,3.2618132 l -0.00463,-0.0042 h 0.00554 A 1.3610743,1.3610743 0 0 1 3.3803631,2.9339159 l -0.0074,0.0018 -0.00877,-0.010174 C 3.3285694,2.8728322 3.2920343,2.813172 3.2545731,2.7465739 3.2277502,2.7003291 3.2004619,2.646216 3.1731756,2.5902563 c 0,-0.00372 -0.00416,-0.00513 -0.006,-0.00552 -0.0111,0 -0.01896,0.05133 -0.028212,0.037927 v -0.0028 A 1.9923577,1.9923577 0 0 1 3.0080744,1.8396896 l -0.0074,0.00372 A 0.87130958,0.87130958 0 0 0 2.6704677,2.2753541 c -0.028212,0.063362 -0.046248,0.098047 -0.064746,0.1327329 0,0.0028 0,-0.00461 0,-0.016194 0.00416,-0.031916 0.018037,-0.097585 0.014799,-0.092497 -0.00323,0.00513 -0.00553,0.00882 -0.00877,0.013415 A 0.80147532,0.80147532 0 0 0 2.4956586,2.4848515 1.0891367,1.0891367 0 0 0 2.4262868,2.661518 c -0.00276,0.00973 0,-0.00832 0,-0.029599 0,-0.02127 0.00416,-0.059199 0,-0.051331 L 2.4161148,2.600475 A 4.3935464,4.3935464 0 0 0 2.0461275,4.0040946 1.3976101,1.3976101 0 0 0 2.031791,4.252909 v 0.00742 A 3.0653076,3.0653076 0 0 0 1.6539417,4.7690529 7.2174403,7.2174403 0 0 0 0.85524217,6.725337 4.7871157,4.7871157 0 0 1 1.2830334,5.9756593 6.9371784,6.9371784 0 0 0 0.79974461,8.5192901 6.582457,6.582457 0 0 1 1.0078598,7.7659142 6.3854411,6.3854411 0 0 0 1.585032,10.755373 6.9542899,6.9542899 0 0 0 4.3372422,13.87618 v 0 a 6.0196208,6.0196208 0 0 0 1.6038754,0.768639 c 0.07492,0.02728 0.1507676,0.0541 0.2284646,0.08 -0.024511,-0.0096 -0.04625,-0.02034 -0.070761,-0.03098 A 7.2609132,7.2609132 0 0 0 8.179966,15 c 2.494615,0 3.318287,-0.949928 3.394136,-1.044738 v 0 A 1.2625664,1.2625664 0 0 0 11.8687,13.559386 v 0 q 0.07216,-0.02958 0.145679,-0.06335 l 0.03097,-0.01397 0.05597,-0.02635 a 5.2315572,5.2315572 0 0 0 1.053064,-0.659489 2.5436321,2.5436321 0 0 0 0.98184,-1.433687 v 0 a 0.89628343,0.89628343 0 0 0 0.01343,-0.660421 q 0.03838,-0.0606 0.0791,-0.129501 A 5.8762526,5.8762526 0 0 0 15.1107,7.7140393 v -0.0027 c 0,-0.027291 0,-0.054583 0,-0.081863 A 3.5754215,3.5754215 0 0 0 15.05473,6.9884887 Z"
     id="path3756"
     inkscape:connector-curvature="0"
     style="fill:#bebebe;fill-opacity:1;stroke-width:0.46247858" />
</svg>
